balancer.svg

<svg width="126" height="21" viewBox="0 0 126 21" fill="none" xmlns="http://www.w3.org/2000/svg">
<path fill-rule="evenodd" clip-rule="evenodd" d="M7.03909 12.8861C8.73042 13.3118 10.7269 13.5577 12.8653 13.5577C15.0037 13.5577 17.0002 13.3118 18.6915 12.8861C22.5832 13.5832 25.2306 14.957 25.2306 16.5377C25.2306 18.8236 19.6945 20.6767 12.8653 20.6767C6.03614 20.6767 0.5 18.8236 0.5 16.5377C0.5 14.957 3.14742 13.5832 7.03909 12.8861Z" fill="white"/>
<path fill-rule="evenodd" clip-rule="evenodd" d="M8.52919 6.18262C9.79919 6.49545 11.2817 6.67503 12.8652 6.67503C14.4487 6.67503 15.9313 6.49545 17.2013 6.18262C20.5067 6.71636 22.7846 7.84134 22.7846 9.1428C22.7846 10.96 18.3436 12.4332 12.8652 12.4332C7.38688 12.4332 2.9458 10.96 2.9458 9.1428C2.9458 7.84134 5.22373 6.71636 8.52919 6.18262Z" fill="white"/>
<path d="M12.9107 5.63901C17.0132 5.63901 20.3389 4.52367 20.3389 3.14783C20.3389 1.77199 17.0132 0.656654 12.9107 0.656654C8.80816 0.656654 5.48242 1.77199 5.48242 3.14783C5.48242 4.52367 8.80816 5.63901 12.9107 5.63901Z" fill="white"/>
<path d="M32.209 18.9074V1.62749H37.7198C38.7809 1.62749 39.6953 1.732 40.4631 1.94102C41.2308 2.15003 41.8619 2.44748 42.3563 2.83335C42.8507 3.21923 43.2164 3.69152 43.4536 4.25023C43.6908 4.80895 43.8093 5.438 43.8093 6.1374C43.8093 6.56347 43.743 6.97346 43.6104 7.36737C43.4777 7.76129 43.2767 8.12706 43.0074 8.4647C42.7381 8.80235 42.4005 9.10381 41.9945 9.3691C41.5885 9.63439 41.1122 9.85144 40.5656 10.0203C41.8277 10.2695 42.7803 10.7237 43.4235 11.3829C44.0666 12.0421 44.3881 12.9103 44.3881 13.9875C44.3881 14.7191 44.2535 15.3863 43.9842 15.9893C43.7149 16.5922 43.321 17.1107 42.8024 17.5448C42.2839 17.9789 41.6488 18.3145 40.8972 18.5517C40.1455 18.7889 39.2874 18.9074 38.3227 18.9074H32.209ZM34.5483 11.0332V17.0504H38.2865C38.9537 17.0504 39.5265 16.974 40.0049 16.8213C40.4832 16.6686 40.8771 16.4535 41.1866 16.1762C41.4961 15.8988 41.7232 15.5692 41.8679 15.1874C42.0126 14.8055 42.085 14.3855 42.085 13.9272C42.085 13.0349 41.7694 12.3295 41.1384 11.811C40.5073 11.2924 39.5527 11.0332 38.2744 11.0332H34.5483ZM34.5483 9.3691H37.6353C38.2945 9.3691 38.8653 9.29675 39.3477 9.15204C39.83 9.00734 40.2299 8.80637 40.5475 8.54911C40.865 8.29186 41.1002 7.98035 41.2529 7.61458C41.4057 7.2488 41.482 6.84886 41.482 6.41475C41.482 5.40182 41.1765 4.65822 40.5656 4.18391C39.9546 3.70961 39.006 3.47246 37.7198 3.47246H34.5483V9.3691ZM56.8265 18.9074H55.8739C55.6649 18.9074 55.496 18.8753 55.3674 18.811C55.2388 18.7466 55.1544 18.61 55.1142 18.401L54.873 17.2675C54.5515 17.5569 54.2379 17.8161 53.9325 18.0452C53.627 18.2744 53.3054 18.4673 52.9678 18.6241C52.6301 18.7808 52.2704 18.8994 51.8885 18.9798C51.5067 19.0602 51.0826 19.1004 50.6163 19.1004C50.142 19.1004 49.6979 19.034 49.2839 18.9014C48.8699 18.7688 48.5101 18.5698 48.2046 18.3045C47.8992 18.0392 47.656 17.7036 47.4751 17.2976C47.2942 16.8916 47.2038 16.4113 47.2038 15.8566C47.2038 15.3743 47.3364 14.91 47.6017 14.4638C47.867 14.0177 48.2951 13.6218 48.8859 13.2761C49.4768 12.9304 50.2506 12.647 51.2072 12.4259C52.1639 12.2049 53.3335 12.0783 54.7163 12.0461V11.0935C54.7163 10.1449 54.5133 9.42738 54.1073 8.94102C53.7013 8.45465 53.1004 8.21147 52.3045 8.21147C51.782 8.21147 51.3419 8.2778 50.9841 8.41044C50.6264 8.54309 50.3169 8.69181 50.0556 8.85661C49.7944 9.02141 49.5693 9.17013 49.3803 9.30278C49.1914 9.43542 49.0045 9.50174 48.8196 9.50174C48.6749 9.50174 48.5483 9.46356 48.4398 9.38719C48.3312 9.31081 48.2448 9.21636 48.1805 9.10381L47.7946 8.41647C48.4699 7.7653 49.1975 7.27895 49.9772 6.95738C50.757 6.63582 51.6212 6.47504 52.5698 6.47504C53.2532 6.47504 53.8601 6.58759 54.3907 6.81268C54.9213 7.03778 55.3674 7.35129 55.7292 7.75325C56.0909 8.1552 56.3643 8.64156 56.5492 9.21234C56.7341 9.78311 56.8265 10.4102 56.8265 11.0935V18.9074ZM51.2555 17.593C51.6333 17.593 51.979 17.5549 52.2925 17.4785C52.606 17.4021 52.9014 17.2936 53.1788 17.1529C53.4561 17.0122 53.7214 16.8414 53.9747 16.6404C54.2279 16.4394 54.4751 16.2103 54.7163 15.9531V13.4087C53.7275 13.4409 52.8874 13.5193 52.196 13.6439C51.5047 13.7685 50.9419 13.9313 50.5078 14.1322C50.0737 14.3332 49.7582 14.5704 49.5612 14.8437C49.3643 15.117 49.2658 15.4225 49.2658 15.7601C49.2658 16.0817 49.318 16.359 49.4225 16.5922C49.5271 16.8253 49.6677 17.0162 49.8446 17.165C50.0215 17.3137 50.2305 17.4222 50.4716 17.4905C50.7128 17.5589 50.9741 17.593 51.2555 17.593ZM62.8497 1.14515V18.9074H60.7033V1.14515H62.8497ZM75.9875 18.9074H75.0349C74.8258 18.9074 74.657 18.8753 74.5284 18.811C74.3998 18.7466 74.3154 18.61 74.2752 18.401L74.034 17.2675C73.7124 17.5569 73.3989 17.8161 73.0934 18.0452C72.7879 18.2744 72.4664 18.4673 72.1287 18.6241C71.7911 18.7808 71.4314 18.8994 71.0495 18.9798C70.6676 19.0602 70.2436 19.1004 69.7773 19.1004C69.303 19.1004 68.8589 19.034 68.4448 18.9014C68.0308 18.7688 67.6711 18.5698 67.3656 18.3045C67.0601 18.0392 66.8169 17.7036 66.6361 17.2976C66.4552 16.8916 66.3647 16.4113 66.3647 15.8566C66.3647 15.3743 66.4974 14.91 66.7627 14.4638C67.028 14.0177 67.456 13.6218 68.0469 13.2761C68.6378 12.9304 69.4115 12.647 70.3682 12.4259C71.3248 12.2049 72.4945 12.0783 73.8772 12.0461V11.0935C73.8772 10.1449 73.6743 9.42738 73.2683 8.94102C72.8623 8.45465 72.2614 8.21147 71.4655 8.21147C70.943 8.21147 70.5028 8.2778 70.1451 8.41044C69.7874 8.54309 69.4779 8.69181 69.2166 8.85661C68.9553 9.02141 68.7302 9.17013 68.5413 9.30278C68.3524 9.43542 68.1655 9.50174 67.9806 9.50174C67.8359 9.50174 67.7093 9.46356 67.6007 9.38719C67.4922 9.31081 67.4058 9.21636 67.3415 9.10381L66.9556 8.41647C67.6309 7.7653 68.3584 7.27895 69.1382 6.95738C69.918 6.63582 70.7822 6.47504 71.7308 6.47504C72.4141 6.47504 73.0211 6.58759 73.5517 6.81268C74.0822 7.03778 74.5284 7.35129 74.8902 7.75325C75.2519 8.1552 75.5252 8.64156 75.7101 9.21234C75.895 9.78311 75.9875 10.4102 75.9875 11.0935V18.9074ZM70.4164 17.593C70.7943 17.593 71.1399 17.5549 71.4535 17.4785C71.767 17.4021 72.0624 17.2936 72.3398 17.1529C72.6171 17.0122 72.8824 16.8414 73.1356 16.6404C73.3889 16.4394 73.6361 16.2103 73.8772 15.9531V13.4087C72.8884 13.4409 72.0484 13.5193 71.357 13.6439C70.6656 13.7685 70.1029 13.9313 69.6688 14.1322C69.2347 14.3332 68.9192 14.5704 68.7222 14.8437C68.5252 15.117 68.4268 15.4225 68.4268 15.7601C68.4268 16.0817 68.479 16.359 68.5835 16.5922C68.688 16.8253 68.8287 17.0162 69.0056 17.165C69.1824 17.3137 69.3914 17.4222 69.6326 17.4905C69.8738 17.5589 70.1351 17.593 70.4164 17.593ZM79.6231 18.9074V6.69209H80.9013C81.2068 6.69209 81.3997 6.84082 81.4801 7.13826L81.6489 8.4647C82.1795 7.87785 82.7724 7.40355 83.4276 7.04179C84.0828 6.68003 84.8404 6.49916 85.7006 6.49916C86.3679 6.49916 86.9567 6.60969 87.4672 6.83077C87.9777 7.05184 88.4037 7.36536 88.7454 7.77134C89.0871 8.17731 89.3463 8.66568 89.5232 9.23645C89.7 9.80723 89.7885 10.4383 89.7885 11.1296V18.9074H87.642V11.1296C87.642 10.2052 87.431 9.48768 87.009 8.97719C86.5869 8.46671 85.9418 8.21147 85.0736 8.21147C84.4385 8.21147 83.8456 8.36422 83.2949 8.6697C82.7443 8.97519 82.2358 9.38919 81.7695 9.91173V18.9074H79.6231ZM101.745 8.86264C101.68 8.95107 101.616 9.0194 101.552 9.06763C101.487 9.11587 101.395 9.13998 101.274 9.13998C101.154 9.13998 101.023 9.08974 100.882 8.98925C100.742 8.88876 100.563 8.77823 100.346 8.65764C100.129 8.53706 99.8654 8.42652 99.5559 8.32603C99.2464 8.22554 98.8665 8.1753 98.4163 8.1753C97.8214 8.1753 97.2949 8.28182 96.8367 8.49485C96.3784 8.70789 95.9946 9.01538 95.6851 9.41733C95.3756 9.81929 95.1424 10.3056 94.9857 10.8764C94.8289 11.4472 94.7505 12.0863 94.7505 12.7937C94.7505 13.5333 94.8349 14.1905 95.0038 14.7653C95.1726 15.3401 95.4097 15.8224 95.7152 16.2123C96.0207 16.6022 96.3925 16.8997 96.8306 17.1047C97.2688 17.3097 97.7611 17.4122 98.3078 17.4122C98.8303 17.4122 99.2604 17.3499 99.5981 17.2253C99.9357 17.1007 100.217 16.962 100.442 16.8092C100.667 16.6565 100.852 16.5178 100.997 16.3932C101.142 16.2686 101.286 16.2063 101.431 16.2063C101.616 16.2063 101.753 16.2746 101.841 16.4113L102.444 17.1951C101.913 17.8463 101.25 18.3226 100.454 18.6241C99.6584 18.9255 98.8183 19.0762 97.934 19.0762C97.1703 19.0762 96.4608 18.9356 95.8057 18.6542C95.1505 18.3728 94.5817 17.9649 94.0994 17.4303C93.617 16.8957 93.2372 16.2385 92.9598 15.4587C92.6825 14.6789 92.5438 13.7906 92.5438 12.7937C92.5438 11.8853 92.6704 11.0452 92.9237 10.2735C93.1769 9.50174 93.5467 8.83651 94.033 8.2778C94.5194 7.71908 95.1203 7.28297 95.8358 6.96944C96.5513 6.65592 97.3713 6.49916 98.2958 6.49916C99.1479 6.49916 99.9036 6.63783 100.563 6.91518C101.222 7.19253 101.805 7.58443 102.311 8.09089L101.745 8.86264ZM109.89 6.49916C110.622 6.49916 111.297 6.62175 111.916 6.86694C112.535 7.11214 113.069 7.46585 113.52 7.9281C113.97 8.39035 114.322 8.96111 114.575 9.64042C114.828 10.3197 114.955 11.0935 114.955 11.9617C114.955 12.2993 114.918 12.5244 114.846 12.637C114.774 12.7495 114.637 12.8058 114.436 12.8058H106.309C106.325 13.5775 106.429 14.2488 106.622 14.8196C106.815 15.3903 107.08 15.8667 107.418 16.2485C107.756 16.6304 108.158 16.9158 108.624 17.1047C109.09 17.2936 109.613 17.388 110.191 17.388C110.73 17.388 111.194 17.3257 111.584 17.2011C111.974 17.0765 112.31 16.9419 112.591 16.7972C112.873 16.6525 113.108 16.5178 113.297 16.3932C113.485 16.2686 113.648 16.2063 113.785 16.2063C113.962 16.2063 114.098 16.2746 114.195 16.4113L114.798 17.1951C114.533 17.5167 114.215 17.796 113.845 18.0332C113.475 18.2703 113.08 18.4653 112.657 18.618C112.235 18.7708 111.799 18.8853 111.349 18.9617C110.899 19.0381 110.453 19.0762 110.011 19.0762C109.167 19.0762 108.389 18.9336 107.677 18.6482C106.966 18.3628 106.351 17.9448 105.832 17.3941C105.314 16.8434 104.91 16.1621 104.62 15.3501C104.331 14.5382 104.186 13.6057 104.186 12.5526C104.186 11.7004 104.317 10.9046 104.578 10.165C104.839 9.42537 105.215 8.78426 105.706 8.24162C106.196 7.69898 106.795 7.27292 107.502 6.96341C108.21 6.65391 109.006 6.49916 109.89 6.49916ZM109.938 8.07883C108.901 8.07883 108.085 8.37828 107.49 8.97719C106.895 9.57611 106.526 10.4061 106.381 11.4673H113.025C113.025 10.9689 112.957 10.5127 112.82 10.0986C112.684 9.68463 112.483 9.32689 112.217 9.02543C111.952 8.72396 111.628 8.49083 111.247 8.32603C110.865 8.16123 110.429 8.07883 109.938 8.07883ZM118.072 18.9074V6.69209H119.302C119.535 6.69209 119.696 6.73631 119.784 6.82474C119.872 6.91317 119.933 7.06591 119.965 7.28296L120.11 9.18822C120.528 8.33608 121.044 7.67085 121.659 7.19253C122.274 6.7142 122.996 6.47504 123.824 6.47504C124.161 6.47504 124.467 6.51323 124.74 6.5896C125.013 6.66597 125.267 6.77248 125.5 6.90915L125.222 8.51294C125.166 8.71392 125.042 8.8144 124.849 8.8144C124.736 8.8144 124.563 8.77622 124.33 8.69985C124.097 8.62348 123.771 8.58529 123.353 8.58529C122.606 8.58529 121.981 8.80234 121.478 9.23645C120.976 9.67056 120.556 10.3016 120.218 11.1296V18.9074H118.072Z" fill="white"/>
</svg>

<svg xmlns="http://www.w3.org/2000/svg" width="126" height="21" fill="none"><path d="M7.039 12.886c1.691.426 3.688.672 5.826.672s4.135-.246 5.826-.672c3.892.697 6.539 2.071 6.539 3.652 0 2.286-5.536 4.139-12.365 4.139S.5 18.824.5 16.538c0-1.581 2.647-2.955 6.539-3.652zm1.49-6.703c1.27.313 2.753.492 4.336.492s3.066-.18 4.336-.492c3.305.534 5.583 1.659 5.583 2.96 0 1.817-4.441 3.29-9.919 3.29s-9.919-1.473-9.919-3.29c0-1.301 2.278-2.426 5.583-2.96z" fill-rule="evenodd" fill="#000"/><path d="M12.911 5.639c4.103 0 7.428-1.115 7.428-2.491S17.013.657 12.911.657 5.482 1.772 5.482 3.148s3.326 2.491 7.428 2.491zm19.298 13.268V1.627h5.511c1.061 0 1.976.105 2.743.314s1.399.506 1.893.892a3.52 3.52 0 0 1 1.097 1.417c.237.559.356 1.188.356 1.887a3.83 3.83 0 0 1-.199 1.23 3.59 3.59 0 0 1-.603 1.097c-.269.337-.607.639-1.013.904s-.882.482-1.429.651c1.262.249 2.215.703 2.858 1.363s.965 1.527.965 2.605c0 .732-.135 1.399-.404 2.002s-.663 1.121-1.182 1.555-1.154.77-1.905 1.007-1.61.356-2.575.356h-6.114zm2.339-7.874v6.017h3.738c.667 0 1.24-.076 1.718-.229s.872-.368 1.182-.645a2.5 2.5 0 0 0 .681-.989 3.53 3.53 0 0 0 .217-1.26c0-.892-.316-1.598-.947-2.116s-1.586-.778-2.864-.778h-3.726zm0-1.664h3.087c.659 0 1.23-.072 1.712-.217s.882-.346 1.2-.603.553-.569.705-.935a3.1 3.1 0 0 0 .229-1.2c0-1.013-.306-1.757-.916-2.231s-1.56-.711-2.846-.711h-3.172v5.897zm22.278 9.538h-.953c-.209 0-.378-.032-.506-.096s-.213-.201-.253-.41l-.241-1.134-.941.778c-.305.229-.627.422-.965.579a5.02 5.02 0 0 1-1.079.356 6.19 6.19 0 0 1-1.272.121 4.33 4.33 0 0 1-1.332-.199c-.414-.133-.774-.332-1.079-.597s-.549-.601-.73-1.007-.271-.886-.271-1.441c0-.482.133-.947.398-1.393s.693-.842 1.284-1.188 1.365-.629 2.321-.85 2.126-.348 3.509-.38v-.953c0-.949-.203-1.666-.609-2.152s-1.007-.73-1.803-.73c-.523 0-.963.066-1.32.199a5 5 0 0 0-.928.446l-.675.446c-.189.133-.376.199-.561.199a.64.64 0 0 1-.38-.115.87.87 0 0 1-.259-.283l-.386-.687c.675-.651 1.403-1.138 2.183-1.459s1.644-.482 2.593-.482c.683 0 1.29.113 1.821.338a3.72 3.72 0 0 1 1.338.941c.361.402.635.888.82 1.459s.277 1.198.277 1.881v7.814zm-5.571-1.314a4.38 4.38 0 0 0 1.037-.114 4.04 4.04 0 0 0 .886-.326 4.7 4.7 0 0 0 .796-.512c.253-.201.5-.43.742-.687V13.41c-.989.032-1.829.111-2.52.235s-1.254.287-1.688.488-.75.438-.947.712a1.53 1.53 0 0 0-.295.916c0 .322.052.599.157.832a1.58 1.58 0 0 0 .422.573c.177.149.386.257.627.326s.502.102.784.102zM62.85 1.145v17.762h-2.146V1.145h2.146zm13.138 17.762h-.953c-.209 0-.378-.032-.506-.096s-.213-.201-.253-.41l-.241-1.134-.941.778a5.38 5.38 0 0 1-.965.579 5 5 0 0 1-1.079.356 6.19 6.19 0 0 1-1.272.121 4.33 4.33 0 0 1-1.332-.199c-.414-.133-.774-.332-1.079-.597a2.84 2.84 0 0 1-.73-1.007c-.181-.406-.271-.886-.271-1.441 0-.482.133-.947.398-1.393s.693-.842 1.284-1.188 1.365-.629 2.321-.85 2.126-.348 3.509-.38v-.953c0-.949-.203-1.666-.609-2.152s-1.007-.73-1.803-.73c-.523 0-.963.066-1.32.199a5 5 0 0 0-.928.446l-.675.446c-.189.133-.376.199-.561.199a.64.64 0 0 1-.38-.115c-.109-.077-.195-.171-.259-.283l-.386-.687c.675-.651 1.403-1.138 2.183-1.459s1.644-.482 2.593-.482c.683 0 1.29.113 1.821.338a3.72 3.72 0 0 1 1.338.941c.361.402.635.888.82 1.459s.277 1.198.277 1.881v7.814zm-5.571-1.314a4.38 4.38 0 0 0 1.037-.114 4.06 4.06 0 0 0 .886-.326 4.72 4.72 0 0 0 .796-.512 6.89 6.89 0 0 0 .742-.687V13.41c-.989.032-1.829.111-2.52.235s-1.254.287-1.688.488-.75.438-.947.712a1.53 1.53 0 0 0-.295.916c0 .322.052.599.157.832s.245.424.422.573.386.257.627.326.502.102.784.102zm9.207 1.314V6.692h1.278c.305 0 .498.149.579.446l.169 1.326a6.88 6.88 0 0 1 1.779-1.423c.655-.362 1.413-.543 2.273-.543.667 0 1.256.111 1.767.332s.936.535 1.278.941.601.894.778 1.465.265 1.202.265 1.893v7.778h-2.147V11.13c0-.924-.211-1.642-.633-2.152s-1.067-.766-1.935-.766a3.61 3.61 0 0 0-1.779.458 5.86 5.86 0 0 0-1.525 1.242v8.996h-2.146zm22.122-10.045a.99.99 0 0 1-.193.205c-.064.048-.157.072-.278.072s-.251-.05-.392-.151-.319-.211-.536-.332-.481-.231-.79-.332-.689-.151-1.14-.151c-.595 0-1.121.107-1.58.32a3.07 3.07 0 0 0-1.152.922c-.31.401-.543.888-.699 1.459s-.235 1.21-.235 1.917c0 .74.084 1.397.253 1.972s.406 1.057.711 1.447a3.03 3.03 0 0 0 1.115.892c.438.205.93.307 1.477.307.522 0 .953-.062 1.29-.187a3.95 3.95 0 0 0 .844-.416l.555-.416c.145-.125.289-.187.434-.187.185 0 .322.068.41.205l.603.784a4.64 4.64 0 0 1-1.99 1.429c-.796.301-1.636.452-2.52.452-.764 0-1.473-.141-2.128-.422a4.84 4.84 0 0 1-1.706-1.224c-.482-.535-.862-1.192-1.14-1.972s-.416-1.668-.416-2.665c0-.908.127-1.748.38-2.52a5.71 5.71 0 0 1 1.109-1.996 5.01 5.01 0 0 1 1.803-1.308c.716-.313 1.535-.47 2.46-.47.852 0 1.608.139 2.267.416a5.42 5.42 0 0 1 1.748 1.176l-.566.772zm8.145-2.363c.732 0 1.407.123 2.026.368s1.153.599 1.604 1.061.802 1.033 1.055 1.712.38 1.453.38 2.321c0 .338-.037.563-.109.675s-.209.169-.41.169h-8.127c.016.772.12 1.443.313 2.014s.458 1.047.796 1.429.74.667 1.206.856a4.14 4.14 0 0 0 1.567.283c.539 0 1.003-.062 1.393-.187s.726-.259 1.007-.404l.706-.404c.188-.125.351-.187.488-.187a.47.47 0 0 1 .41.205l.603.784a4.07 4.07 0 0 1-.953.838c-.37.237-.765.432-1.188.585a7.54 7.54 0 0 1-1.308.344 7.98 7.98 0 0 1-1.338.114c-.844 0-1.622-.143-2.334-.428a5.13 5.13 0 0 1-1.845-1.254c-.518-.551-.922-1.232-1.212-2.044s-.434-1.744-.434-2.797c0-.852.131-1.648.392-2.388s.637-1.381 1.128-1.923 1.089-.969 1.796-1.278 1.504-.464 2.388-.464zm.048 1.58c-1.037 0-1.853.299-2.448.898s-.964 1.429-1.109 2.49h6.644a4.34 4.34 0 0 0-.205-1.369 3.03 3.03 0 0 0-.603-1.073 2.7 2.7 0 0 0-.97-.699c-.382-.165-.818-.247-1.309-.247zm8.134 10.829V6.692h1.23c.233 0 .394.044.482.133s.149.241.181.458l.145 1.905c.418-.852.934-1.517 1.549-1.996s1.337-.717 2.165-.717c.337 0 .643.038.916.115a3.2 3.2 0 0 1 .76.32l-.278 1.604c-.056.201-.18.301-.373.301-.113 0-.286-.038-.519-.115s-.559-.115-.977-.115c-.747 0-1.372.217-1.875.651s-.922 1.065-1.26 1.893v7.778h-2.146z" fill="#000"/></svg>
